X:1
T:Kumbaya
C:Traditional (American)
M:4/4
L:1/4
Q:1/4=88
K:G
G2 A G | G2 G2 | G2 A G | G2 G2 | A2 B c | d2 c B | A2 G2 | G4 | G2 A G | G2 G2 | A2 B c | G4 |]
w: Kum-ba-ya my | Lord kum- | ba-ya kum- | ba-ya my | Lord kum- | ba-ya O | Lord kum- | ba-ya Kum- | ba-ya my | Lord kum- | ba-ya O | Lord
